X:625
T:Blackberry Rag
S:Steve Kaufman, Three Stripped Gears
Z:Nigel Gatherer
M:4/4
L:1/8
K:C
e2 f2 ^f2 | gage gage  | gage-  ed c2 |  cdcA  cdcA | cdcA- AGA^A   |
            BAGA Bd e2 | g2 g2  aged  |1 c2 cB cdef | g2           :|
                                       2 c2 GA GFED | C2           ||
c2 B2  c2 | ^ceac eace | a^cea- agfe  | defd   efde | fdef- fedc    |
             Bcde dcBA | GABc   d2 B2 |  c2 GA GFED | C2           :|
<end>
<start>
